X:77
T: Hidló végén, padló végén
O: Bogdánfalva (Bákó), 1929
Q: "Guisto" 1/4=152
M:2/4
L:1/8
K:G
A(B/A/) GE | A(B/A/) GE | 
F/E/D DF | A2 A z | 
A(B/A/) GE | A(B/A/) GE | 
A/F/D DE | D2 D z | 

